icons/svg/end-to-end-encryption_14.svg

<svg width="14" height="14" viewBox="0 0 14 14" fill="none" xmlns="http://www.w3.org/2000/svg">
<path d="M5.99876 12C4.28327 11.0871 2.08146 8.87745 2 5.17188L5.99876 2.08203V12Z" fill="#5EBFF7"/>
<path d="M6.71808 0.233476C6.27736 -0.0777893 5.69368 -0.0778283 5.25292 0.233378L0.554015 3.74775C0.195318 4.00101 7.95931e-08 4.42212 7.95931e-08 4.86719C-0.000592072 9.65565 3.30304 12.8197 5.43732 13.864C5.8005 14.0417 6.22268 14.0492 6.59051 13.8634L6.61351 13.852C6.76744 13.7759 6.82335 13.7483 7 13.6406L7.10159 13.5815C7.34032 13.4426 7.41769 13.1343 7.27281 12.8991C7.12472 12.6588 6.80594 12.5943 6.56362 12.7391C6.42003 12.825 6.28068 12.901 6.14708 12.9671L6.13971 12.9708C6.0655 13.0082 5.97321 13.0129 5.87681 12.9657C3.9885 12.0418 0.999467 9.17652 1 4.86732C1 4.70822 1.06776 4.60916 1.1308 4.56465L1.14198 4.55675L5.83696 1.04532C5.92863 0.984706 6.04324 0.984895 6.13476 1.04589L10.4085 4.2225C10.6297 4.38691 10.9421 4.34171 11.1077 4.12136C11.2745 3.89936 11.2288 3.58405 11.0059 3.41847L6.71808 0.233476Z" fill="#279BE8"/>
<path d="M7.00071 11.3314C6.66145 11.6054 6.32212 11.8286 6 12V2.08203L9.9953 5.17376C9.99762 5.11617 9.99402 5.232 9.9953 5.17376C8.8349 5.58867 8.00071 6.70007 8.00071 8V8.3621C7.41015 8.7357 7.00071 9.38596 7.00071 10.167V11.3314Z" fill="#279BE8"/>
<path fill-rule="evenodd" clip-rule="evenodd" d="M11 7C11.552 7 12 7.449 12 8V9H10V8C10 7.449 10.448 7 11 7ZM13 9.033V8C13 6.9 12.1 6 11 6C9.9 6 9 6.9 9 8V9.033C8.439 9.118 8 9.582 8 10.167V12.834C8 13.477 8.523 14 9.167 14H12.833C13.477 14 14 13.477 14 12.834V10.167C14 9.582 13.561 9.118 13 9.033Z" fill="#279BE8"/>
</svg>

<?xml version="1.0" encoding="utf-8"?>
<!-- Generator: Adobe Illustrator 25.0.0, SVG Export Plug-In . SVG Version: 6.00 Build 0)  -->
<svg version="1.1" id="Layer_1" xmlns="http://www.w3.org/2000/svg" xmlns:xlink="http://www.w3.org/1999/xlink" x="0px" y="0px"
	 viewBox="0 0 14 14" style="enable-background:new 0 0 14 14;" xml:space="preserve">
<style type="text/css">
	.st0{fill-rule:evenodd;clip-rule:evenodd;}
</style>
<g>
	<path d="M6,12c-1.7-0.9-3.9-3.1-4-6.8l4-3.1V12z"/>
	<path d="M6.7,0.2c-0.4-0.3-1-0.3-1.5,0L0.6,3.7C0.2,4,0,4.4,0,4.9c0,4.8,3.3,8,5.4,9c0.4,0.2,0.8,0.2,1.2,0l0,0
		c0.2-0.1,0.2-0.1,0.4-0.2l0.1-0.1c0.2-0.1,0.3-0.4,0.2-0.7c-0.1-0.2-0.5-0.3-0.7-0.2c-0.1,0.1-0.3,0.2-0.4,0.2l0,0
		c-0.1,0-0.2,0-0.3,0C4,12,1,9.2,1,4.9c0-0.2,0.1-0.3,0.1-0.3l0,0L5.8,1C5.9,1,6,1,6.1,1l4.3,3.2c0.2,0.2,0.5,0.1,0.7-0.1
		c0.2-0.2,0.1-0.5-0.1-0.7L6.7,0.2z"/>
	<path d="M7,11.3c-0.3,0.3-0.7,0.5-1,0.7V2.1l4,3.1c0-0.1,0,0.1,0,0C8.8,5.6,8,6.7,8,8v0.4c-0.6,0.4-1,1-1,1.8V11.3z"/>
</g>
<path class="st0" d="M11,7c0.6,0,1,0.4,1,1v1h-2V8C10,7.4,10.4,7,11,7z M13,9V8c0-1.1-0.9-2-2-2S9,6.9,9,8v1c-0.6,0.1-1,0.5-1,1.1
	v2.7C8,13.5,8.5,14,9.2,14h3.7c0.6,0,1.2-0.5,1.2-1.2v-2.7C14,9.6,13.6,9.1,13,9z"/>
</svg>
